build/img/forced-defrost.svg

<svg xmlns="http://www.w3.org/2000/svg" viewBox="0 0 19.84 19.84"><path d="M15.56 3.46l-3.25.85-.85-3.26M9.92 8.42l4.4-7.54m.34 7.58l2.39-2.37M9.92 8.42l8.7.06M5.18 8.39L2.82 6m7.1 2.42l-8.7-.06m3.12-4.97l3.23.89.89-3.25m1.46 7.39L5.62.83m4.3 11.16h0c-.34 1.83-2.46 2.58-2.46 4.48 0 1.28 1.15 2.41 2.46 2.41s2.46-1.13 2.46-2.41c0-1.9-2.12-2.65-2.46-4.48zm4.74-2.87h0c-.28 1.53-2.05 2.15-2.05 3.74 0 1.07.96 2.01 2.05 2.01 1.09 0 2.05-.94 2.05-2.01 0-1.59-1.76-2.21-2.05-3.74zm-9.48 0h0c-.29 1.53-2.05 2.15-2.05 3.74 0 1.07.96 2.01 2.05 2.01 1.09 0 2.05-.94 2.05-2.01-.01-1.59-1.77-2.21-2.05-3.74z" fill="none" stroke="#1d1d1b" stroke-width=".5" stroke-linejoin="bevel" stroke-miterlimit="10"/></svg>

<?xml version="1.0" encoding="utf-8"?>
<!-- Generator: Adobe Illustrator 23.0.3, SVG Export Plug-In . SVG Version: 6.00 Build 0)  -->
<svg version="1.1" id="Слой_1" xmlns="http://www.w3.org/2000/svg" xmlns:xlink="http://www.w3.org/1999/xlink" x="0px" y="0px"
	 viewBox="0 0 19.84 19.84" style="enable-background:new 0 0 19.84 19.84;" xml:space="preserve">
<style type="text/css">
	.st0{fill:none;stroke:#1D1D1B;stroke-width:0.5;stroke-linejoin:bevel;stroke-miterlimit:10;}
</style>
<g>
	<path class="st0" d="M15.56,3.46l-3.25,0.85l-0.85-3.26 M9.92,8.42l4.4-7.54 M14.66,8.46l2.39-2.37 M9.92,8.42l8.7,0.06 M5.18,8.39
		L2.82,6 M9.92,8.42l-8.7-0.06 M4.34,3.39l3.23,0.89l0.89-3.25 M9.92,8.42l-4.3-7.59 M9.92,11.99L9.92,11.99
		c-0.34,1.83-2.46,2.58-2.46,4.48c0,1.28,1.15,2.41,2.46,2.41s2.46-1.13,2.46-2.41C12.38,14.57,10.26,13.82,9.92,11.99z M14.66,9.12
		L14.66,9.12c-0.28,1.53-2.05,2.15-2.05,3.74c0,1.07,0.96,2.01,2.05,2.01c1.09,0,2.05-0.94,2.05-2.01
		C16.71,11.27,14.95,10.65,14.66,9.12z M5.18,9.12L5.18,9.12c-0.29,1.53-2.05,2.15-2.05,3.74c0,1.07,0.96,2.01,2.05,2.01
		c1.09,0,2.05-0.94,2.05-2.01C7.22,11.27,5.46,10.65,5.18,9.12z"/>
</g>
</svg>
